src/border-all.svg

<svg xmlns="http://www.w3.org/2000/svg" viewBox="0 0 20 20"><path d="M11 11v6h6v-6h-6zm0-2h6V3h-6v6zm-2 2H3v6h6v-6zm0-2V3H3v6h6zm-8 9V1h18v18H1v-1z"/></svg>

<?xml version="1.0" encoding="UTF-8" standalone="no"?>
<svg width="20px" height="20px" viewBox="0 0 20 20" version="1.1" xmlns="http://www.w3.org/2000/svg" xmlns:xlink="http://www.w3.org/1999/xlink">
    <!-- Generator: Sketch 3.7.2 (28276) - http://www.bohemiancoding.com/sketch -->
    <title>border-all</title>
    <desc>Created with Sketch.</desc>
    <defs></defs>
    <g id="Page-1" stroke="none" stroke-width="1" fill="none" fill-rule="evenodd">
        <g id="border-all" fill="#000000">
            <path d="M11,11 L11,17 L17,17 L17,11 L11,11 Z M11,9 L11,3 L17,3 L17,9 L11,9 Z M9,11 L9,17 L3,17 L3,11 L9,11 Z M9,9 L9,3 L3,3 L3,9 L9,9 Z M1,18 L1,1 L2,1 L18,1 L19,1 L19,19 L18,19 L1,19 L1,18 Z" id="Combined-Shape"></path>
        </g>
    </g>
</svg>
